public/images/home/truffle.svg

<svg width="158" height="43" viewBox="0 0 158 43" fill="none" xmlns="http://www.w3.org/2000/svg">
<path d="M3.79864 34.3563C6.65496 36.7406 9.90384 38.4069 13.4099 39.6126C14.4523 39.9649 15.5082 40.3035 16.6182 40.3984C16.7536 40.4119 16.889 40.439 17.0243 40.4255C17.2815 40.3848 17.6199 40.4255 17.7147 40.1139C17.823 39.7481 17.4981 39.5991 17.2545 39.4636C15.6842 38.6237 14.0326 37.9599 12.503 37.0251C9.30821 35.0743 6.35714 32.8119 4.15061 29.7367C1.186 25.6048 0.279016 20.9717 0.888182 15.9863C1.41613 11.6376 3.18948 7.88507 6.47898 4.95887C9.56542 2.22234 13.2204 0.650861 17.3086 0.163162C21.6946 -0.36518 25.9046 0.36637 29.6679 2.6694C33.0792 4.76921 35.7325 7.64122 37.1133 11.5022C38.7242 16.0134 35.9491 20.3214 31.1841 20.7143C25.4714 21.1749 21.0042 18.8041 17.6335 14.3471C15.454 11.448 15.7789 8.48115 18.2291 5.82589C19.1767 4.79631 20.368 4.3357 21.7081 4.24087C24.6998 4.03766 27.4208 4.8234 29.8168 6.65227C30.6832 7.31609 31.3871 8.15602 31.6308 9.26689C32.064 11.3125 30.8456 13.0466 28.6391 13.3581C26.4326 13.6697 23.6169 12.8163 22.1278 10.4726C21.4645 9.42945 21.2479 8.33213 21.5998 7.11288C21.6946 6.7742 21.9383 6.2865 21.478 6.08329C21.0719 5.90718 20.7741 6.32714 20.571 6.63873C19.4474 8.30503 19.5151 10.0797 20.3544 11.7867C21.8976 14.9025 24.578 16.4875 27.9216 17.0565C29.2347 17.2868 30.5343 17.1514 31.7661 16.6095C34.6495 15.336 35.746 12.2337 34.4329 9.07722C33.1875 6.08329 30.9404 4.11895 28.0435 2.77777C23.9417 0.867616 19.7859 0.4612 15.5623 2.27653C9.9986 4.66083 7.81914 10.2965 9.2676 15.756C10.4318 20.1453 13.2204 23.3966 16.8483 25.9706C19.84 28.0975 23.1295 29.5877 26.7845 30.1567C29.4784 30.5766 32.1452 30.4276 34.7037 29.398C37.1945 28.3955 38.846 26.4989 39.9154 24.074C39.9696 23.9385 40.0237 23.803 40.132 23.6811C40.2132 24.8191 39.9425 25.9029 39.6176 26.9595C37.4246 34.2344 32.795 39.2333 25.512 41.5092C17.444 44.029 8.78027 41.0486 3.67681 34.4782C3.71742 34.4376 3.75803 34.397 3.79864 34.3563Z" fill="#5F474E"/>
<path d="M33.1469 11.692C33.4582 8.50838 31.8067 6.48984 29.3836 4.95901C26.1888 2.95402 22.7775 2.42568 19.1631 3.67202C15.1426 5.06738 13.1662 8.42709 14.0055 12.5861C15.0073 17.5986 18.0937 20.9312 22.7234 22.8549C25.6744 24.0741 28.7744 24.5483 31.9827 23.9928C35.6512 23.3697 38.2097 20.5383 38.4263 16.7857C38.6023 13.8731 38.1014 11.8274 36.5988 9.23992C36.7206 9.15864 36.8154 9.19928 36.8966 9.29411C39.7936 12.5996 40.9713 18.1269 38.2368 22.2994C36.6665 24.6837 34.3381 25.903 31.5901 26.2281C25.7421 26.8919 20.6522 25.1714 16.564 20.9041C14.0191 18.2353 12.4488 15.0517 12.4217 11.2585C12.3946 7.20784 14.6824 3.91587 18.5675 2.75081C23.5762 1.24707 28.0163 2.42568 31.6849 6.16471C32.9844 7.49233 33.6071 9.14509 33.4447 11.0417C33.4176 11.2449 33.4853 11.5023 33.1469 11.692Z" fill="#44E0C6"/>
<path d="M3.67677 34.4779C3.63616 34.4102 3.58201 34.356 3.5414 34.2883C3.64969 34.207 3.73091 34.2476 3.7986 34.356C3.75799 34.3967 3.71738 34.4373 3.67677 34.4779Z" fill="#5F474E"/>
<path d="M48.5347 13.8571H58.5788V16.199H55.1317V30.2505H51.9818V16.199H48.5347V13.8571Z" fill="#5F474E"/>
<path d="M72.835 30.2505L70.5469 23.4824H68.9125V30.2505H65.7625V13.8571H70.6954C72.2011 13.8571 73.3996 14.2162 74.2911 14.9343C75.1826 15.6369 75.6283 16.5815 75.6283 17.7681V19.5713C75.6283 20.3208 75.4401 20.9843 75.0637 21.562C74.6873 22.1396 74.1524 22.5924 73.4591 22.9203L76.1038 30.2505H72.835ZM68.9125 21.1404H70.5469C71.161 21.1404 71.6365 21.0077 71.9732 20.7423C72.31 20.4769 72.4784 20.1022 72.4784 19.6182V17.7212C72.4784 17.2372 72.31 16.8625 71.9732 16.5971C71.6365 16.3317 71.161 16.199 70.5469 16.199H68.9125V21.1404Z" fill="#5F474E"/>
<path d="M88.2153 30.4847C86.7691 30.4847 85.5904 30.1334 84.6791 29.4308C83.7678 28.7126 83.3121 27.7837 83.3121 26.6439V13.8571H86.4621V26.6439C86.4621 27.1123 86.6205 27.4792 86.9375 27.7446C87.2743 28.0101 87.7002 28.1428 88.2153 28.1428C88.7304 28.1428 89.1464 28.0101 89.4634 27.7446C89.8002 27.4792 89.9686 27.1123 89.9686 26.6439V13.8571H93.0591V26.6439C93.0591 27.7837 92.6133 28.7126 91.7218 29.4308C90.8304 30.1334 89.6615 30.4847 88.2153 30.4847Z" fill="#5F474E"/>
<path d="M101.128 13.8571H109.925V16.199H104.278V20.9999H108.736V23.3418H104.278V30.2505H101.128V13.8571Z" fill="#5F474E"/>
<path d="M117.114 13.8571H125.91V16.199H120.264V20.9999H124.721V23.3418H120.264V30.2505H117.114V13.8571Z" fill="#5F474E"/>
<path d="M133.099 13.8571H136.249V27.9086H141.865V30.2505H133.099V13.8571Z" fill="#5F474E"/>
<path d="M149.055 13.8571H158V16.199H152.205V20.7657H156.811V23.1076H152.205V27.9086H158V30.2505H149.055V13.8571Z" fill="#5F474E"/>
</svg>

<svg xmlns="http://www.w3.org/2000/svg" width="158" height="43" fill="none" xmlns:v="https://vecta.io/nano"><path d="M3.799 34.356c2.856 2.384 6.105 4.051 9.611 5.256 1.042.352 2.098.691 3.208.786.135.014.271.041.406.027.257-.041.596 0 .69-.312.108-.366-.217-.515-.46-.65-1.57-.84-3.222-1.504-4.751-2.438-3.195-1.951-6.146-4.213-8.352-7.288C1.186 25.605.279 20.972.888 15.986c.528-4.349 2.301-8.101 5.591-11.027C9.565 2.222 13.22.651 17.309.163c4.386-.528 8.596.203 12.359 2.506 3.411 2.1 6.065 4.972 7.445 8.833 1.611 4.511-1.164 8.819-5.929 9.212-5.713.461-10.18-1.91-13.551-6.367-2.18-2.899-1.855-5.866.596-8.521.948-1.03 2.139-1.49 3.479-1.585 2.992-.203 5.713.583 8.109 2.411.866.664 1.57 1.504 1.814 2.615.433 2.046-.785 3.78-2.992 4.091s-5.022-.542-6.511-2.886c-.663-1.043-.88-2.14-.528-3.36.095-.339.339-.826-.122-1.03-.406-.176-.704.244-.907.555-1.124 1.666-1.056 3.441-.217 5.148 1.543 3.116 4.224 4.701 7.567 5.27 1.313.23 2.613.095 3.845-.447 2.883-1.274 3.98-4.376 2.667-7.532-1.245-2.994-3.492-4.958-6.389-6.299-4.102-1.91-8.258-2.317-12.481-.501-5.564 2.384-7.743 8.02-6.295 13.479 1.164 4.389 3.953 7.641 7.581 10.215 2.992 2.127 6.281 3.617 9.936 4.186 2.694.42 5.361.271 7.919-.759 2.491-1.003 4.142-2.899 5.212-5.324.054-.136.108-.271.217-.393.081 1.138-.189 2.222-.514 3.278-2.193 7.275-6.823 12.274-14.106 14.55-8.068 2.52-16.732-.461-21.835-7.031l.122-.122z" fill="#5f474e"/><path d="M33.147 11.692c.311-3.184-1.34-5.202-3.763-6.733-3.195-2.005-6.606-2.533-10.221-1.287-4.02 1.395-5.997 4.755-5.158 8.914 1.002 5.013 4.088 8.345 8.718 10.269 2.951 1.219 6.051 1.693 9.259 1.138 3.669-.623 6.227-3.454 6.444-7.207.176-2.913-.325-4.958-1.828-7.546.122-.081.217-.041.298.054 2.897 3.305 4.075 8.833 1.34 13.005-1.57 2.384-3.899 3.604-6.647 3.929-5.848.664-10.938-1.057-15.026-5.324-2.545-2.669-4.115-5.852-4.142-9.646-.027-4.051 2.261-7.343 6.146-8.508 5.009-1.504 9.449-.325 13.117 3.414 1.3 1.328 1.922 2.98 1.76 4.877-.027.203.041.461-.298.65z" fill="#44e0c6"/><path d="M3.677 34.478c-.041-.068-.095-.122-.135-.19.108-.081.19-.041.257.068l-.122.122zm44.858-20.621h10.044v2.342h-3.447V30.25h-3.15V16.199h-3.447v-2.342zm24.3 16.394l-2.288-6.768h-1.634v6.768h-3.15V13.857h4.933c1.506 0 2.704.359 3.596 1.077.891.703 1.337 1.647 1.337 2.834v1.803c0 .749-.188 1.413-.565 1.991s-.911 1.03-1.605 1.358l2.645 7.33h-3.269zm-3.922-9.11h1.634c.614 0 1.09-.133 1.426-.398s.505-.64.505-1.124v-1.897c0-.484-.168-.859-.505-1.124s-.812-.398-1.426-.398h-1.634v4.941zm19.302 9.344c-1.446 0-2.625-.351-3.536-1.054-.911-.718-1.367-1.647-1.367-2.787V13.857h3.15v12.787c0 .468.158.835.475 1.101.337.266.763.398 1.278.398s.931-.133 1.248-.398c.337-.265.505-.632.505-1.101V13.857h3.091v12.787a3.41 3.41 0 0 1-1.337 2.787c-.891.703-2.06 1.054-3.507 1.054zm12.913-16.628h8.797v2.342h-5.647V21h4.458v2.342h-4.458v6.909h-3.15V13.857zm15.986 0h8.796v2.342h-5.646V21h4.457v2.342h-4.457v6.909h-3.15V13.857zm15.985 0h3.15v14.051h5.616v2.342h-8.766V13.857zm15.956 0H158v2.342h-5.795v4.567h4.606v2.342h-4.606v4.801H158v2.342h-8.945V13.857z" fill="#5f474e"/></svg>
